!!!COM: Bach, Johann Sebastian
!!!CDT: 1685/3//-1750/7/28/
!!!OTL@@DE: Erstanden ist der heil'ge Christ
!!!AGN: 4-Part Chorale
!!!SCT: BH 176
!!!SCT: BWV 306
**harm	**root	**kern	**kern	**kern	**kern
!	!	!bass	!tenor	!alto	!soprno
*	*Iorgan	*Iorgan	*Iorgan	*Iorgan	*Iorgan
*M3/4	*M3/4	*M3/4	*M3/4	*M3/4	*M3/4
*MM60	*MM60	*MM60	*MM60	*MM60	*MM60
*k[b-]	*k[b-]	*k[b-]	*k[b-]	*k[b-]	*k[b-]
*F:	*F:	*F:	*F:	*F:	*F:
I	4FF	4FF	4A	4c	4f
=1	=1	=1	=1	=1	=1
I	4.FF	4.F	8A	4c	4.f
.	.	.	8B-	.	.
.	.	.	8A	8d	.
vii	8EE	8E	8G	8e	8g
vi	4DD	4D	4F	[4f	8a
.	.	.	.	.	8b-
=2	=2	=2	=2	=2	=2
V	2CC	4.C	2G	4f]	2cc
.	.	.	.	8e	.
.	.	8D	.	8f	.
Vb	4CC	8E	4c	[4g	4g
.	.	8C	.	.	.
=3	=3	=3	=3	=3	=3
I	2FF	4.F	2c	8g]	2a
.	.	.	.	8e	.
.	.	.	.	[2f	.
.	.	8E	.	.	.
viib/V	4BB	4D	4d	.	4bn
=4	=4	=4	=4	=4	=4
V;	2CC;	2C;	2G;	4f]	2cc;
.	.	.	.	4e;	.
V7b	4CC	4E	4c	[4g	4b-y
=5	=5	=5	=5	=5	=5
I	4FF	4.F	8c	4g]	4.a
.	.	.	8A	.	.
vib	4DD	.	2d	2f	.
.	.	8E	.	.	8g
vi	4DD	4D	.	.	8a
.	.	.	.	.	8b-
=6	=6	=6	=6	=6	=6
Vb	4CC	4.E	8c	8g	2cc
.	.	.	8d	8f	.
Vb	8CC	.	4e	8g	.
vii7/ii	8FF#	8F#	.	[8a	.
ii	4GG	4G	4d	8a]	4b-
.	.	.	.	[8g	.
=7	=7	=7	=7	=7	=7
vi	4DD	4.D	4d	8g]	2a
.	.	.	.	16f	.
.	.	.	.	16e	.
vi	4DD	.	4A	[4f	.
.	.	8C	.	.	.
v7c/III	4EE	4BB-	4D	8f]	4g
.	.	.	.	16e	.
.	.	.	.	16d	.
!!linebreak: 2
=8	=8	=8	=8	=8	=8
III;	2AA;	2AA;	2E;	2c#;	2a;
vi	4DD	4D	4F	4d	4a
=9	=9	=9	=9	=9	=9
iii	4AA	8A	4A	4.e	2cc
.	.	8AA	.	.	.
iii	4AA	8A	[2c	.	.
.	.	8G	.	8f	.
V7b	4CC	8F	.	[4g	4b-
.	.	8E	.	.	.
=10	=10	=10	=10	=10	=10
I	4FF	8F	8c]	4g]	2a
.	.	8FF	8A	.	.
vib	4DD	8F	8d	4f	.
.	.	8E	8c	.	.
viioD7/vi	4CC#	8D	4B-	[4e	4g
.	.	8C#	.	.	.
=11	=11	=11	=11	=11	=11
vi	4DD	4D	8A	4e]	2f
.	.	.	8F	.	.
IV	4BB-	4BB-	8B-	4d	.
.	.	.	8A	.	.
V	4CC	4Cn	4G	8c	4e
.	.	.	.	8B-	.
=12	=12	=12	=12	=12	=12
vi;	2DD;	2D;	2F;	2A;	2f;
vi	4DD	8D	4A	4d	4f
.	.	8C	.	.	.
=13	=13	=13	=13	=13	=13
iib	4GG	4.BB-	4G	4d	8g
.	.	.	.	.	8f
V7d	8CC	.	4c	8e	8g
Ib	8FF	8AA	.	8f	8a
!!!ONB1: in beat 3 of measure 13, the tenor pitch is 'd' in
!!!ONB2: Breitkof & Haertel editions, but is 'B-' in the
!!!ONB3: Bach Compendium index incipit.
ii	4GG	4GG	8B-	8d	4b-
.	.	.	8G	8e	.
=14	=14	=14	=14	=14	=14
I	4FF	8FF	8A	2f	2a
.	.	8GG	8B-	.	.
Ib	4FF	8AA	[4c	.	.
.	.	8BB-	.	.	.
V	4CC	4C	8c]	[4e	4g
.	.	.	8B-	.	.
=15	=15	=15	=15	=15	=15
vi	4DD	8D	4A	4e]	2f
.	.	8C	.	.	.
IV	4BB-	4BB-	8B-	4d	.
.	.	.	8A	.	.
V7	4CC	4C	8G	4c	4e
.	.	.	8B-	.	.
=16	=16	=16	=16	=16	=16
I;	2FF;	2FF;	2A;	2c;	2f;
==	==	==	==	==	==
*-	*-	*-	*-	*-	*-
!!!YEC: Copyright 1994, David Huron
!!!YEC: Changes/Additions 2001 by Craig Stuart Sapp
!!!YEN: United States of America
!!!SMA: 371 Bach Chorales, edited by Ludwig Erk, C.F. Peters
!!!PDT: 1850, 1865
!!!ONB: Harmony and Root analysis done manually
